packages/icons/svg/Fill/all-done.svg

<svg fill="none" height="24" viewBox="0 0 24 24" width="24" xmlns="http://www.w3.org/2000/svg"><path d="m17.295 7.70509c.3894-.38936.3894-1.02064 0-1.41-.3894-.38936-1.0206-.38936-1.41 0l-4.93 4.93001c-.3894.3893-.3894 1.0206 0 1.41.3894.3893 1.0206.3893 1.41 0zm5.6525-1.41249c-.3909-.38817-1.0226-.38745-1.4121.0021l-9.1691 9.1691c-.3902.3902-1.0227.3906-1.4134.0009l-2.76747-2.7609c-.38973-.3888-1.02074-.3884-1.41.0009-.3896.3896-.3896 1.0212 0 1.4108l4.17747 4.1775c.3905.3905 1.0237.3905 1.4142 0l10.5833-10.5833c.3915-.3915.39-1.02699-.0029-1.4171zm-21.82531 6.4103c-.392877.3901-.394077 1.0253-.00258 1.4168l4.17508 4.1751c.38953.3895 1.02109.3895 1.41063 0 .38929-.3893.38957-1.0204.00063-1.41l-4.17133-4.1788c-.38945-.3902-1.02125-.3915-1.41243-.0031z" fill="#6b7280"/></svg>

<svg width="24" height="24" viewBox="0 0 24 24" fill="none" xmlns="http://www.w3.org/2000/svg">
<path d="M17.2949 7.70484C17.6843 7.31548 17.6843 6.6842 17.2949 6.29484V6.29484C16.9056 5.90548 16.2743 5.90548 15.8849 6.29484L10.9549 11.2248C10.5656 11.6142 10.5656 12.2455 10.9549 12.6348V12.6348C11.3443 13.0242 11.9756 13.0242 12.3649 12.6348L17.2949 7.70484ZM22.9474 6.29235C22.5565 5.90418 21.9248 5.90491 21.5353 6.29446L12.3662 15.4636C11.976 15.8538 11.3435 15.8542 10.9528 15.4644L8.18533 12.7036C7.7956 12.3148 7.1646 12.3152 6.77533 12.7044V12.7044C6.38574 13.094 6.38574 13.7257 6.77533 14.1153L10.9528 18.2927C11.3433 18.6833 11.9765 18.6833 12.367 18.2927L22.9503 7.70945C23.3418 7.31795 23.3403 6.68247 22.9474 6.29235V6.29235ZM1.1221 12.7027C0.729222 13.0928 0.728022 13.728 1.11952 14.1195L5.2946 18.2945C5.68413 18.6841 6.31569 18.6841 6.70523 18.2945V18.2945C7.09452 17.9052 7.0948 17.2742 6.70586 16.8845L2.53452 12.7057C2.14508 12.3156 1.51327 12.3143 1.1221 12.7027V12.7027Z" fill="#000000"/>
</svg>
